X:406
T:Down by the Sally Gardens (Harm.)
M:C
R:Air
L:1/4
Q:1/2=100
W:It was down by the Sally Gardens, my love and I did meet.
W:She crossed the Sally Gardens with little snow-white feet.
W:She bid me take love easy, as the leaves grow on the tree,
W:But I was young and foolish, and with her did not agree.
W:
W:In a field down by the river, my love and I did stand
W:And on my leaning shoulder, she laid her snow-white hand.
W:She bid me take life easy , as the grass grows on the weirs
W:But I was young and foolish, and now am full of tears.
K:D
V:1
|:(uD/E/)|\
F(E/D/) E(F/A/)|B2 A(d/A/)|B(A/F/) E>D|D3:|
V:2
|:D|D2 C D/F/|G2FF|GF/D/A,>D|D3:|
V:1
A|d (c/A/) Bd|c2A (F/A/)|B A/F/ (E/B/) (d/e/)|d3 (uD/E/)|
V:2
A|F A/F/GB|A2FD/F/|GF/D/ F/G/ F/G/|F3D|
V:1
F (E/D/)E (F/A/)|B2 A d/A/|B (A/F/)E>D|D3|]
V:2
D2 C D/F/|G2FF|GF/D/C>D|D3|]
